storage/app/icons/phosphoricons/light/subtract-square-light.svg

<svg xmlns="http://www.w3.org/2000/svg" fill="currentColor" viewBox="0 0 256 256"><path d="M216 90h-50V40a6 6 0 0 0-6-6H40a6 6 0 0 0-6 6v120a6 6 0 0 0 6 6h50v50a6 6 0 0 0 6 6h120a6 6 0 0 0 6-6V96a6 6 0 0 0-6-6m-53.52 120-44-44h39l44 44Zm3.52-52.48v-39l44 44v39Zm44-12L166.48 102H210ZM46 46h108v108H46Zm56 120.48L145.52 210H102Z"/></svg>

<svg xmlns="http://www.w3.org/2000/svg" viewBox="0 0 256 256" fill="currentColor"><path d="M216,90H166V40a6,6,0,0,0-6-6H40a6,6,0,0,0-6,6V160a6,6,0,0,0,6,6H90v50a6,6,0,0,0,6,6H216a6,6,0,0,0,6-6V96A6,6,0,0,0,216,90ZM162.48,210l-44-44h39l44,44ZM166,157.52v-39l44,44v39Zm44-12L166.48,102H210ZM46,46H154V154H46Zm56,120.48L145.52,210H102Z"/></svg>
